X:105
T:Polska efter Bruun
R:sl\"angpolska
A:Sk{\aa}ne
B:SvL Sk 531, efter J. Bruun som hade den efter modern som sj\"ong den
Z:id:hn-sp-105
M:3/4
L:1/16
K:Dm =B
d3^c d2e2 f2d2 | e3f e2f2 e2f2 | d2d^c d2e2 f2d2 | ed^cB A4 A4 :|
|: a2f2 f2f2 a4 | gfed cdef g4 | a2f2 f4 a4 | gfed cdef g4 |
a2gf g2fe f2ed | e2d^c d4 d4 :|
<end>
<start>
